svg/development/hotkey_fill.svg

<?xml version="1.0" encoding="UTF-8"?>
<svg width="24px" height="24px" viewBox="0 0 24 24" version="1.1" xmlns="http://www.w3.org/2000/svg" xmlns:xlink="http://www.w3.org/1999/xlink">
    <title>hotkey_fill</title>
    <g id="页面-1" stroke="none" stroke-width="1" fill="none" fill-rule="evenodd">
        <g id="hotkey_fill">
             <path d="M24,0 L24,24 L0,24 L0,0 L24,0 Z M12.5934901,23.257841 L12.5819402,23.2595131 L12.5108777,23.2950439 L12.4918791,23.2987469 L12.4918791,23.2987469 L12.4767152,23.2950439 L12.4056548,23.2595131 C12.3958229,23.2563662 12.3870493,23.2590235 12.3821421,23.2649074 L12.3780323,23.275831 L12.360941,23.7031097 L12.3658947,23.7234994 L12.3769048,23.7357139 L12.4804777,23.8096931 L12.4953491,23.8136134 L12.4953491,23.8136134 L12.5071152,23.8096931 L12.6106902,23.7357139 L12.6232938,23.7196733 L12.6232938,23.7196733 L12.6266527,23.7031097 L12.609561,23.275831 C12.6075724,23.2657013 12.6010112,23.2592993 12.5934901,23.257841 L12.5934901,23.257841 Z M12.8583906,23.1452862 L12.8445485,23.1473072 L12.6598443,23.2396597 L12.6498822,23.2499052 L12.6498822,23.2499052 L12.6471943,23.2611114 L12.6650943,23.6906389 L12.6699349,23.7034178 L12.6699349,23.7034178 L12.678386,23.7104931 L12.8793402,23.8032389 C12.8914285,23.8068999 12.9022333,23.8029875 12.9078286,23.7952264 L12.9118235,23.7811639 L12.8776777,23.1665331 C12.8752882,23.1545897 12.8674102,23.1470016 12.8583906,23.1452862 L12.8583906,23.1452862 Z M12.1430473,23.1473072 C12.1332178,23.1423925 12.1221763,23.1452606 12.1156365,23.1525954 L12.1099173,23.1665331 L12.0757714,23.7811639 C12.0751323,23.7926639 12.0828099,23.8018602 12.0926481,23.8045676 L12.108256,23.8032389 L12.3092106,23.7104931 L12.3186497,23.7024347 L12.3186497,23.7024347 L12.3225043,23.6906389 L12.340401,23.2611114 L12.337245,23.2485176 L12.337245,23.2485176 L12.3277531,23.2396597 L12.1430473,23.1473072 Z" id="MingCute" fill-rule="nonzero"></path>
            <path d="M18,3 C19.6569,3 21,4.34315 21,6 L21,18 C21,19.6569 19.6569,21 18,21 L6,21 C4.34315,21 3,19.6569 3,18 L3,6 C3,4.34315 4.34315,3 6,3 L18,3 Z M15.2934,16.7076 C14.9018,16.895 14.4631,17 14,17 L5,17 L5,18 C5,18.5523 5.44772,19 6,19 L17.5858,19 L15.2934,16.7076 Z M18,5 L17,5 L17,14 C17,14.4631 16.895,14.9018 16.7076,15.2934 L19,17.5858 L19,6 C19,5.44772 18.5523,5 18,5 Z M9,7 C8.44772,7 8,7.44772 8,8 L8,8 L8,12 C8,12.5523 8.44772,13 9,13 C9.55228,13 10,12.5523 10,12 L10,12 L10,11.8685 L11.4453,12.8321 C11.9048,13.1384 12.5257,13.0142 12.8321,12.5547 C13.1384,12.0952 13.0142,11.4743 12.5547,11.1679 L12.5547,11.1679 L11.1778,10.25 L12.5547,9.33205 C13.0142,9.0257 13.1384,8.40483 12.8321,7.9453 C12.5257,7.48577 11.9048,7.3616 11.4453,7.66795 L11.4453,7.66795 L10,8.63148 L10,8 C10,7.44772 9.55228,7 9,7 Z" id="形状结合" fill="#09244B" fill-rule="nonzero"></path>
        </g>
    </g>
</svg>

<svg xmlns="http://www.w3.org/2000/svg" width="24" height="24"><g fill="none" fill-rule="evenodd"><path d="M24 0v24H0V0h24ZM12.593 23.258l-.011.002-.071.035-.02.004-.014-.004-.071-.035c-.01-.004-.019-.001-.024.005l-.004.01-.017.428.005.02.01.013.104.074.015.004.012-.004.104-.074.012-.016.004-.017-.017-.427c-.002-.01-.009-.017-.017-.018Zm.265-.113-.013.002-.185.093-.01.01-.003.011.018.43.005.012.008.007.201.093c.012.004.023 0 .029-.008l.004-.014-.034-.614c-.003-.012-.01-.02-.02-.022Zm-.715.002a.023.023 0 0 0-.027.006l-.006.014-.034.614c0 .012.007.02.017.024l.015-.002.201-.093.01-.008.004-.011.017-.43-.003-.012-.01-.01-.184-.092Z"/><path fill="#09244B" fill-rule="nonzero" d="M18 3a3 3 0 0 1 3 3v12a3 3 0 0 1-3 3H6a3 3 0 0 1-3-3V6a3 3 0 0 1 3-3h12Zm-2.707 13.708c-.391.187-.83.292-1.293.292H5v1a1 1 0 0 0 1 1h11.586l-2.293-2.292ZM18 5h-1v9c0 .463-.105.902-.292 1.293L19 17.586V6a1 1 0 0 0-1-1ZM9 7a1 1 0 0 0-1 1v4a1 1 0 1 0 2 0v-.132l1.445.964a1 1 0 0 0 1.11-1.664l-1.377-.918 1.377-.918a1 1 0 0 0-1.11-1.664L10 8.63V8a1 1 0 0 0-1-1Z"/></g></svg>
